X:87
T:Sligo Maid, The
S:The Session: https://thesession.org/tunes/399#setting55397
C:Traditional
R:reel
K:Ador
M:4/4
L:1/8
Q:1/4=120
|: "Am"A2BA (3Bcd ef| gedB AGEF| "G"G2BG DGBG| DEGA BedB|
| "Am"A2BA (3Bcd ef| gedB AGEG| "G"B3G A2GE| DEGA "Am"BAA2:| 
|: eaag a2ga| bgaf gfed| "G"eggf g2ge| dega bgag|
| "Am"eaag a2ga| bgaf gfed| "G"eg (3ggg edBA| dBgB "Am"BAA2:|

